public/icons/airplane_send.svg

<svg width="none" height="none" fill="none" viewBox="0 0 512 512" xmlns="http://www.w3.org/2000/svg">
<path d="M291.48 449.94C288.668 449.938 285.913 449.146 283.529 447.653C281.146 446.161 279.23 444.029 278 441.5L207.5 296.57L62.57 226.08C59.9592 224.807 57.774 222.804 56.2797 220.313C54.7855 217.823 54.0464 214.952 54.1523 212.049C54.2582 209.147 55.2045 206.338 56.8762 203.963C58.548 201.587 60.8734 199.749 63.57 198.67L435.48 49.0798C438.209 47.9798 441.201 47.7068 444.084 48.2946C446.967 48.8824 449.614 50.3051 451.694 52.3856C453.775 54.4661 455.197 57.1126 455.785 59.9956C456.373 62.8786 456.1 65.8708 455 68.5998L305.4 440.54C304.315 443.234 302.472 445.556 300.093 447.223C297.714 448.89 294.903 449.83 292 449.93L291.48 449.94ZM106.1 213.94L225.28 271.94C228.301 273.409 230.741 275.849 232.21 278.87L290.21 398.05L414 89.9998L106.1 213.94Z" fill="none"/>
<path d="M218.72 300.35C215.753 300.349 212.853 299.469 210.387 297.82C207.92 296.171 205.998 293.828 204.863 291.086C203.729 288.345 203.433 285.329 204.012 282.419C204.592 279.509 206.021 276.837 208.12 274.74L430.47 52.3898C431.863 50.9971 433.517 49.8925 435.337 49.1391C437.158 48.3856 439.108 47.9981 441.078 47.9985C443.048 47.999 444.999 48.3875 446.819 49.1418C448.639 49.8961 450.292 51.0015 451.685 52.3948C453.078 53.7881 454.182 55.4421 454.936 57.2623C455.689 59.0825 456.077 61.0333 456.076 63.0033C456.076 64.9733 455.687 66.9239 454.933 68.7438C454.179 70.5637 453.073 72.2171 451.68 73.6098L229.33 296C226.509 298.798 222.693 300.362 218.72 300.35Z" fill="none"/>
</svg>

<svg xmlns="http://www.w3.org/2000/svg" width="none" height="none" fill="none" viewBox="0 0 512 512"><path d="M291.48 449.94A15 15 0 0 1 278 441.5l-70.5-144.93-144.93-70.49a15.002 15.002 0 0 1 1-27.41L435.48 49.08A14.999 14.999 0 0 1 455 68.6L305.4 440.54a15.004 15.004 0 0 1-13.4 9.39l-.52.01Zm-185.38-236 119.18 58a14.999 14.999 0 0 1 6.93 6.93l58 119.18L414 90 106.1 213.94Z"/><path d="M218.72 300.35a15 15 0 0 1-10.6-25.61L430.47 52.39a14.996 14.996 0 0 1 16.349-3.248 15.003 15.003 0 0 1 8.114 19.602 15.001 15.001 0 0 1-3.253 4.866L229.33 296a15.002 15.002 0 0 1-10.61 4.35Z"/></svg>
